24x24/apps/amazon-store.svg

<svg xmlns="http://www.w3.org/2000/svg" width="24" height="24" version="1">
 <rect style="opacity:0.2" width="20" height="20" x="-22.5" y="-22" rx="1" ry="1" transform="matrix(0,-1,-1,0,0,0)"/>
 <rect style="fill:#3f5979" width="20" height="20" x="-22" y="-22" rx="1" ry="1" transform="matrix(0,-1,-1,0,0,0)"/>
 <path style="opacity:0.1;fill:#f4f4f7" d="M 3,2 C 2.446,2 2,2.446 2,3 V 3.5 C 2,2.946 2.446,2.5 3,2.5 H 21 C 21.554,2.5 22,2.946 22,3.5 V 3 C 22,2.446 21.554,2 21,2 Z"/>
 <path style="fill-rule:evenodd;opacity:0.2" d="M 12.932,11.084 C 12.932,11.768 12.95,12.337 12.619,12.942 12.354,13.434 11.932,13.737 11.461,13.737 10.819,13.737 10.445,13.226 10.445,12.47 10.445,10.977 11.723,10.706 12.933,10.706 V 11.085 M 14.62,15.351 C 14.511,15.455 14.351,15.463 14.226,15.394 13.671,14.912 13.571,14.687 13.265,14.226 12.347,15.207 11.698,15.5 10.506,15.5 9.0979,15.5 8.0006,14.592 8.0006,12.773 8.0006,11.353 8.7373,10.384 9.784,9.9106 10.691,9.4925 11.961,9.4184 12.932,9.3029 V 9.0763 C 12.932,8.6602 12.963,8.1681 12.731,7.8085 12.525,7.486 12.135,7.3534 11.791,7.3534 11.152,7.3534 10.584,7.6955 10.445,8.4047 10.415,8.5627 10.306,8.7173 10.154,8.7253 L 8.5302,8.5437 C 8.3937,8.5107 8.2432,8.3952 8.2802,8.1766 8.6553,6.1217 10.433,5.5 12.023,5.5 12.837,5.5 13.902,5.7266 14.543,6.3712 15.358,7.1664 15.28,8.2271 15.28,9.3819 V 12.109 C 15.28,12.93 15.604,13.289 15.911,13.733 16.019,13.889 16.042,14.08 15.907,14.198 15.565,14.499 14.958,15.05 14.624,15.36 L 14.618,15.354"/>
 <path style="fill:#f4f4f7;fill-rule:evenodd" d="M 12.932,10.584 C 12.932,11.268 12.95,11.837 12.619,12.442 12.354,12.934 11.932,13.237 11.461,13.237 10.819,13.237 10.445,12.726 10.445,11.97 10.445,10.477 11.723,10.206 12.933,10.206 V 10.585 M 14.62,14.851 C 14.511,14.955 14.351,14.963 14.226,14.894 13.671,14.412 13.571,14.187 13.265,13.726 12.347,14.707 11.698,15 10.506,15 9.0979,15 8.0006,14.092 8.0006,12.273 8.0006,10.853 8.7373,9.8837 9.784,9.4106 10.691,8.9925 11.961,8.9184 12.932,8.8029 V 8.5763 C 12.932,8.1602 12.963,7.6681 12.731,7.3085 12.525,6.986 12.135,6.8534 11.791,6.8534 11.152,6.8534 10.584,7.1955 10.445,7.9047 10.415,8.0627 10.306,8.2173 10.154,8.2253 L 8.5302,8.0437 C 8.3937,8.0107 8.2432,7.8952 8.2802,7.6766 8.6553,5.6217 10.433,5 12.023,5 12.837,5 13.902,5.2266 14.543,5.8712 15.358,6.6664 15.28,7.7271 15.28,8.8819 V 11.609 C 15.28,12.43 15.604,12.789 15.911,13.233 16.019,13.389 16.042,13.58 15.907,13.698 15.565,13.999 14.958,14.55 14.624,14.86 L 14.618,14.854"/>
 <path style="opacity:0.2" d="M 17.046,16.499 C 16.591,16.506 16.054,16.611 15.647,16.904 15.52,16.994 15.542,17.118 15.682,17.101 16.14,17.044 17.161,16.919 17.343,17.157 17.526,17.395 17.14,18.38 16.97,18.82 16.917,18.952 17.028,19.007 17.145,18.905 17.911,18.251 18.106,16.88 17.95,16.683 17.873,16.584 17.5,16.493 17.046,16.499 Z M 5.094,16.762 C 4.9995,16.775 4.9575,16.893 5.057,16.985 6.754,18.556 8.997,19.5 11.487,19.5 13.264,19.5 15.325,18.925 16.749,17.851 L 16.75,17.849 C 16.987,17.669 16.785,17.404 16.543,17.508 14.949,18.203 13.213,18.537 11.637,18.537 9.299,18.537 7.0335,17.881 5.2035,16.789 5.1635,16.765 5.126,16.758 5.094,16.762 Z"/>
 <path style="fill:#ff9900" d="M 17.046,15.999 C 16.591,16.006 16.054,16.111 15.647,16.404 15.52,16.494 15.542,16.618 15.682,16.601 16.14,16.544 17.161,16.419 17.343,16.657 17.526,16.895 17.14,17.88 16.97,18.32 16.917,18.452 17.028,18.507 17.145,18.405 17.911,17.751 18.106,16.38 17.95,16.183 17.873,16.084 17.5,15.993 17.046,15.999 Z M 5.094,16.262 C 4.9995,16.275 4.9575,16.393 5.057,16.485 6.754,18.056 8.997,19 11.487,19 13.264,19 15.325,18.425 16.749,17.351 L 16.75,17.349 C 16.987,17.169 16.785,16.904 16.543,17.008 14.949,17.703 13.213,18.037 11.637,18.037 9.299,18.037 7.0335,17.381 5.2035,16.289 5.1635,16.265 5.126,16.258 5.094,16.262 Z"/>
</svg>

<svg xmlns="http://www.w3.org/2000/svg" width="24" height="24" version="1"><rect style="opacity:.2" width="20" height="20" x="-22.5" y="-22" rx="1" ry="1" transform="matrix(0 -1 -1 0 0 0)"/><rect style="fill:#3f5979" width="20" height="20" x="-22" y="-22" rx="1" ry="1" transform="matrix(0 -1 -1 0 0 0)"/><path style="opacity:.1;fill:#f4f4f7" d="M3 2c-.554 0-1 .446-1 1v.5c0-.554.446-1 1-1h18c.554 0 1 .446 1 1V3c0-.554-.446-1-1-1z"/><path style="fill-rule:evenodd;opacity:.2" d="M12.932 11.084c0 .684.018 1.253-.313 1.858-.265.492-.687.795-1.158.795-.642 0-1.016-.511-1.016-1.267 0-1.493 1.278-1.764 2.488-1.764v.379m1.687 4.266a.334.334 0 0 1-.394.043c-.555-.482-.655-.707-.961-1.168-.918.981-1.567 1.274-2.759 1.274-1.408 0-2.505-.908-2.505-2.727 0-1.42.736-2.389 1.783-2.862.907-.418 2.177-.493 3.148-.608v-.227c0-.416.031-.908-.201-1.268-.206-.322-.596-.455-.94-.455-.639 0-1.207.343-1.346 1.052-.03.158-.139.312-.291.32L8.53 8.544c-.136-.033-.287-.149-.25-.367.375-2.055 2.153-2.677 3.743-2.677.814 0 1.879.227 2.52.871.815.795.737 1.856.737 3.01v2.728c0 .821.324 1.18.631 1.624.108.156.131.347-.004.465a82.95 82.95 0 0 0-1.283 1.162l-.006-.006"/><path style="fill:#f4f4f7;fill-rule:evenodd" d="M12.932 10.584c0 .684.018 1.253-.313 1.858-.265.492-.687.795-1.158.795-.642 0-1.016-.511-1.016-1.267 0-1.493 1.278-1.764 2.488-1.764v.379m1.687 4.266a.334.334 0 0 1-.394.043c-.555-.482-.655-.707-.961-1.168-.918.981-1.567 1.274-2.759 1.274-1.408 0-2.505-.908-2.505-2.727 0-1.42.736-2.39 1.783-2.862.907-.418 2.177-.493 3.148-.608v-.227c0-.416.031-.908-.201-1.268-.206-.322-.596-.455-.94-.455-.639 0-1.207.343-1.346 1.052-.03.158-.139.312-.291.32L8.53 8.044c-.136-.033-.287-.149-.25-.367C8.655 5.622 10.433 5 12.023 5c.814 0 1.879.227 2.52.871.815.795.737 1.856.737 3.01v2.728c0 .821.324 1.18.631 1.624.108.156.131.347-.004.465a82.95 82.95 0 0 0-1.283 1.162l-.006-.006"/><path style="opacity:.2" d="M17.046 16.499c-.455.007-.992.112-1.399.405-.127.09-.105.214.035.197.458-.057 1.479-.182 1.661.056.183.238-.203 1.223-.373 1.663-.053.132.058.187.175.085.766-.654.961-2.025.805-2.222-.077-.099-.45-.19-.904-.184zm-11.952.263c-.095.013-.137.131-.037.223a9.396 9.396 0 0 0 6.43 2.515c1.777 0 3.838-.575 5.262-1.649l.001-.002c.237-.18.035-.445-.207-.341a12.501 12.501 0 0 1-4.906 1.029c-2.338 0-4.604-.656-6.434-1.748a.171.171 0 0 0-.109-.027z"/><path style="fill:#f90" d="M17.046 15.999c-.455.007-.992.112-1.399.405-.127.09-.105.214.035.197.458-.057 1.479-.182 1.661.056.183.238-.203 1.223-.373 1.663-.053.132.058.187.175.085.766-.654.961-2.025.805-2.222-.077-.099-.45-.19-.904-.184zm-11.952.263c-.095.013-.137.131-.037.223A9.396 9.396 0 0 0 11.487 19c1.777 0 3.838-.575 5.262-1.649l.001-.002c.237-.18.035-.445-.207-.341a12.501 12.501 0 0 1-4.906 1.029c-2.338 0-4.604-.656-6.434-1.748a.171.171 0 0 0-.109-.027z"/></svg>
